!!!!SEGMENT: pl-kk--kk-i-389--004-001_anonim--missa-no-4-rorate.krn
!!!cenid: 17xx:2476
!!!COM: Anonim
!!!COM-rismID: pe30004985
!!!CDT:
!!!CNT:
!!!OPR: [Missa] No. 4.
!!!OTL: Rorate
!!!OMV: 001
!!!PDT:
!!!AGN: Sacred; Mass
!!!YEC: Copyright 2022 Narodowy Instytut Fryderyka Chopina (https://polishscores.org)
!!!YEM: License CC-BY-4.0 (https://creativecommons.org/licenses/by/4.0)
!!!SMS-siglum: PL-Kk
!!!SMS-shelfmark: Kk.I.389
!!!SMS-variant:
!!!SMS-altvar:
!!!SMS-shelfwork: 004-001 M
!!!NIFC-rismSourceID: 1001146182
!!!NIFC-rismChildID: 1001146623
!!!NIFC-islandoraID: pl-kk:6976
!!!URL-pdf-islandora: https://repozytorium.nifc.pl/islandora/object/pl-kk%3A6976/datastream/PDF/view
!!!URL-scan: https://polish.musicsources.pl/pl/lokalizacje/galeria/rekopisy/5999/1 @EN{Scan on Polish Music Sources Website} @PL{Skany w portalu Dziedzictwo Muzyki Polskiej w otwartym dostępie}
!!!IIIF:
!!!ONB-nifc: UWAGA: S – skan 8-9, A – 27-28 , T –46-47 , B – 65-66 . Części Mszy: Rorate, Kyrie, Gloria, Graduale, Sanctus, Benedictus, Agnus, Dona
!!!AIN: 1 alto 1 bass 1 soprn 1 tenor
!!!key: B-
**kern	**text	**kern	**text	**kern	**text	**kern	**text
*part4	*part4	*part3	*part3	*part2	*part2	*part1	*part1
*staff4	*staff4	*staff3	*staff3	*staff2	*staff2	*staff1	*staff1
*I"Basso.	*	*I"Tenore.	*	*I"Alto.	*	*I"Soprano.	*
*I'[B]	*	*I'[T]	*	*I'[A]	*	*I'[S]	*
*ICvox	*	*ICvox	*	*ICvox	*	*ICvox	*
*Ibass	*	*Itenor	*	*Ialto	*	*Isoprn	*
*clefF4	*	*clefC4	*	*clefC3	*	*clefC1	*
*k[b-e-]	*	*k[b-e-]	*	*k[b-e-]	*	*k[b-e-]	*
*B-:	*	*B-:	*	*B-:	*	*B-:	*
*M3/2	*	*M3/2	*	*M3/2	*	*M3/2	*
=1	=1	=1	=1	=1	=1	=1	=1
!!LO:TX:t=P:problem:all\right	!	!	!	!	!	!	!	!	!	!	!	!	!	!
2r	.	2r	.	2r	.	2r	.
*	*	*2\right	*	*	*	*2\right	*
2BB-/	Ro-	2B-\	Ro-	1f	Ro-	2dd\	Ro-
*2\right	*	*	*	*	*	*	*
2F\	.	2A\	.	.	.	2cc\	.
=2	=2	=2	=2	=2	=2	=2	=2
*	*	*	*	*2\right	*	*	*
2D\	-ra-	2B-\	-ra-	2f\	-ra-	2dd\	-ra-
2BB-/	-te	2d\	-te	2f\	-te	2dd\	-te
2E-X\	Ro-	2e-\	Ro-	2g\	Ro-	4cc\	Ro-
.	.	.	.	.	.	4b-\	.
=3	=3	=3	=3	=3	=3	=3	=3
2F\	-ra-	2c\	-ra-	2f\	-ra-	2a\	-ra-
2F\	-te	2c\	-te	2f\	-te	2a\	-te,
2B-\	Ro-	2B-\	ro-	2f\	Ro-	2dd\	Ro-
=4	=4	=4	=4	=4	=4	=4	=4
2A\	-ra-	2c\	-ra-	1f	-ra-	1cc	-ra-
2F\	.	2A\	.	.	.	.	.
2B-\	-te,	2F/	-te	2en\	-te	2dd\	-te
!	!	!LO:LB:g=original	!	!	!	!	!
=5	=5	=5	=5	=5	=5	=5	=5
1.G	ce-	2B-\	ce-	1f	ce-	1.b-	ce-
.	.	1G	.	.	.	.	.
.	.	.	.	2en\	.	.	.
!	!	!	!	!	!	!LO:LB:g=original	!
=6	=6	=6	=6	=6	=6	=6	=6
2F\	-li	2c\	-li	2f\	-li	2a\	-li,
!LO:LB:g=original	!	!	!	!	!	!	!
2B-\	Ro-	1B-	Ro-	1f	Ro-	1dd	Ro-
2A-X\	.	.	.	.	.	.	.
!	!	!	!	!LO:LB:g=original	!	!	!
=7	=7	=7	=7	=7	=7	=7	=7
2G\	-ra-	1B-	-ra-	1g	-ra-	1ee-X	-ra-
2E-\	.	.	.	.	.	.	.
2c\	-te	2B-\	-te	2g\	-te	2ee-\	-te
=8	=8	=8	=8	=8	=8	=8	=8
2A-X\	de-	4c\	ce-	1f	de-	1ee-	de-
.	.	4c\	-li	.	.	.	.
2B-\	.	2B-\	de-	.	.	.	.
2BB-/	-su-	2B-\	-su-	2f\	-su-	2dd\	-su-
=9	=9	=9	=9	=9	=9	=9	=9
1E-	-per.	2B-\	-per,	2g\	-per	2ee-\	-per,
.	.	1e-X	et	1a-X	et	1a-X	et
2r	.	.	.	.	.	.	.
=10	=10	=10	=10	=10	=10	=10	=10
!LO:TX:a:t=5.	!	!	!	!	!	!	!
00.r	.	2.e-\	nu-	2.g\	nu-	2.b-\	nu-
.	.	4e-\	-bes	4g\	-bes	4b-\	-bes
.	.	4d\	plu-	4f\	plu-	4b-\	plu-
.	.	4e-\	-ant	4g\	-ant	4b-\	-ant
=11	=11	=11	=11	=11	=11	=11	=11
.	.	2c\	jus-	2e-\	jus-	2cc\	jus-
.	.	2c\	-tum	2e-\	-tum	2cc\	-tum
.	.	2c\	et	2e-\	et	4cc\	et
.	.	.	.	.	.	4b-\	.
!	!	!LO:LB:g=original	!	!	!	!	!
=12	=12	=12	=12	=12	=12	=12	=12
.	.	2.f\	nu-	1c	nu-	2.an\	nu-
.	.	4f\	-bes	.	.	4a\	-bes
.	.	4e-X\	plu-	2c\	-bes	4g\	plu-
.	.	4f\	-ant	.	.	4a\	-ant
!	!	!	!	!	!	!LO:LB:g=original	!
=13	=13	=13	=13	=13	=13	=13	=13
.	.	2d\	plu-	2B-/	plu-	2f/	plu-
.	.	2c\	.	2e-X\	.	2a\	.
.	.	2B-\	-ant	2f\	-ant	2b-\	-ant
=14	=14	=14	=14	=14	=14	=14	=14
1.r	.	2e-X\	ju-	4e-\	ju-	1b-	ju-
.	.	.	.	4d\	.	.	.
.	.	2f\	.	1c	.	.	.
.	.	2F/	.	.	.	2a\	.
!	!	!	!	!LO:LB:g=original	!	!	!
=15	=15	=15	=15	=15	=15	=15	=15
2r	.	2B-\	-stum	2d\	-stum	2b-\	-stum,
1B-	a-	1B-	a-	1f	a-	1dd	a-
=16	=16	=16	=16	=16	=16	=16	=16
2B-\	-pe-	1B-	-pe-	1f	-pe-	2.dd\	-pe-
2D\	.	.	.	.	.	.	.
.	.	.	.	.	.	4cc\	.
2E-\	-ri-	2B-\	-ri-	2g\	-ri-	4b-\	.
.	.	.	.	.	.	4cc\	-ri-
=17	=17	=17	=17	=17	=17	=17	=17
2B-\	-a-	1B-	-a-	1f	-a-	1dd	-a-
2D\	.	.	.	.	.	.	.
2E-\	-tur	2B-\	-tur	2g\	-tur	2b-\	-tur
!LO:LB:g=original	!	!	!	!	!	!	!
=18	=18	=18	=18	=18	=18	=18	=18
2D\	ter-	2F/	ter-	2d\	ter-	2b-\	ter-
2C/	.	2A\	.	2e-X\	.	2cc\	.
2BB-/	.	2B-\	.	2f\	.	2dd\	.
!	!	!LO:LB:g=original	!	!	!	!	!
=19	=19	=19	=19	=19	=19	=19	=19
1F	-ra	2B-\	.	1f	-ra.	1cc	-ra.
.	.	2A\	-ra,	.	.	.	.
2r	.	2F/	et	2r	.	2r	.
=20	=20	=20	=20	=20	=20	=20	=20
!LO:TX:a:t=2	!	!	!	!	!	!LO:TX:a:t=5.	!
0.r	.	2.A/	ger-	00.r	.	00.r	.
.	.	4G/	-mi-	.	.	.	.
.	.	2F/	-net	.	.	.	.
=21	=21	=21	=21	=21	=21	=21	=21
.	.	1G	Sal-	.	.	.	.
.	.	2A\	-va-	.	.	.	.
=22	=22	=22	=22	=22	=22	=22	=22
2r	.	2B-\	-to-	.	.	.	.
2r	.	2B-\	-rem,	.	.	.	.
2BB-/	et	2d\	et	.	.	.	.
=23	=23	=23	=23	=23	=23	=23	=23
2.D\	ger-	2.B-\	ger-	.	.	.	.
4C/	-mi-	4c\	-mi-	.	.	.	.
2BB-/	-net	2d\	-net	.	.	.	.
=24	=24	=24	=24	=24	=24	=24	=24
1D	sal-	1B-	Sal-	00.r	.	1.r	.
2En\	-va-	2B-\	-va-	.	.	.	.
!	!	!	!	!	!	!LO:LB:g=original	!
=25	=25	=25	=25	=25	=25	=25	=25
2F\	-to-	2B-\	-to-	.	.	2r	.
2F\	-rem	2A\	-rem,	.	.	2r	.
2F\	et	2A\	et	.	.	2f/	et
!	!	!LO:LB:g=original	!	!	!	!	!
=26	=26	=26	=26	=26	=26	=26	=26
2.F\	ger-	2.F/	ger-	.	.	2.a/	ger-
4F\	-mi-	4G/	-mi-	.	.	4g/	-mi-
2F\	-net	2A/	-net	.	.	2f/	-net
!LO:LB:g=original	!	!	!	!	!	!	!
=27	=27	=27	=27	=27	=27	=27	=27
2E-X\	sal-	1B-	Sal-	.	.	1g	Sal-
2D\	.	.	.	.	.	.	.
2C/	-va-	2c\	-va-	.	.	2a\	-va-
=28	=28	=28	=28	=28	=28	=28	=28
2BB-/	-to-	2d\	-to-	2r	.	2b-\	-to-
2BB-/	-rem,	2d\	-rem	2r	.	2b-\	-rem
2B-\	et	2r	.	2B-/	et	2dd\	et
=29	=29	=29	=29	=29	=29	=29	=29
!	!	!LO:TX:a:t=2.	!	!	!	!	!
2.B-\	ger-	0.r	.	2.d\	ger-	2.b-\	ger-
4B-\	-mi-	.	.	4c\	-mi-	4cc\	-mi-
2B-\	-net	.	.	2B-/	-net	2dd\	-net
!	!	!	!	!LO:LB:g=original	!	!	!
=30	=30	=30	=30	=30	=30	=30	=30
2B-\	Sal-	.	.	1d	Sal-	1f	Sal-
2An\	.	.	.	.	.	.	.
2G\	-va-	.	.	2en\	-va-	2g\	-va-
=31	=31	=31	=31	=31	=31	=31	=31
2F\	-to-	2r	.	2f\	-to-	2a\	-to-
2F\	-rem	2r	.	2f\	-rem	2a\	-rem
2F\	et	2A\	et	2f\	et	2cc\	et
!	!	!	!	!	!	!LO:LB:g=original	!
=32	=32	=32	=32	=32	=32	=32	=32
2.A\	ger-	2.A\	ger-	2.f\	ger-	2.cc\	ger-
4G\	-mi-	4B-\	-mi-	4en\	-mi-	4b-\	-mi-
2F\	-net	2c\	-net	2f\	-net	2a\	-net
=33	=33	=33	=33	=33	=33	=33	=33
1G	Sal-	1B-	sal-	1f	Sal-	1dd	Sal-
2A\	-va-	2c\	-va-	4f\	.	4a\	.
.	.	.	.	4e-X\	-va-	4g\	-va-
!LO:LB:g=original	!	!	!	!	!	!	!
=34	=34	=34	=34	=34	=34	=34	=34
2B-\	-to-	2d\	-to-	2d\	-to-	2f/	-to-
2BB-/	-rem,	2d\	-rem	2d\	-rem	2f/	-rem
2G\	et	2d\	et	2d\	Sal-	2b-\	Sal-
!	!	!LO:LB:g=original	!	!	!	!	!
=35	=35	=35	=35	=35	=35	=35	=35
2E-X\	ger-	2c\	ger-	4e-X\	.	2b-\	-va-
.	.	.	.	4d\	-va-	.	.
2F\	.	1c	-mi-	1c	-to-	2b-\	-to-
2FF/	-mi-	.	.	.	.	2a\	.
=36	=36	=36	=36	=36	=36	=36	=36
2BB-/	-net	2d\	-net	2d\	-rem	2b-\	-rem
2E-\	sal-	2e-X\	Sal-	2g\	Sal-	2b-\	sal-
2D\	-va-	2f\	va-	2f\	-va-	2dd\	-va-
!	!	!	!	!LO:LB:g=original	!	!	!
=37	=37	=37	=37	=37	=37	=37	=37
1.E-	-to-	1.B-	-to-	1.g	-to-	1.b-	-to-
=38	=38	=38	=38	=38	=38	=38	=38
!LO:N:vis=0	!	!	!	!	!	!	!
0.BB-	-rem.	0.B-	-rem.	1.f	.	0.dd	-rem.
=39	=39	=39	=39	=39	=39	=39	=39
.	.	.	.	1.f	-rem.	.	.
==	==	==	==	==	==	==	==
*-	*-	*-	*-	*-	*-	*-	*-
!!!system-decoration: [(s1,s2,s3,s4)]
!!!ENC: Filip Voros
!!!END: 2023-11-07
!!!EED: Jan Barakat
!!!EEV: 2023-11-29
